public/technologies/sequelize_icon.svg

<svg width="128" height="128" viewBox="0 0 128 128" fill="none" xmlns="http://www.w3.org/2000/svg">
<path d="M103.466 40.8281V86.9741L64.2799 109.948L63.9199 110.276V127.67L64.2799 127.998L119.452 96.1301V31.8701H118.926L103.37 40.5701V40.9301" fill="#2F406A"/>
<path d="M24.9599 87.3L64.3439 110.11V128L8.71387 96V32H9.27387L24.7979 41.026L24.9619 41.552V87.5" fill="#2379BD"/>
<path d="M24.9598 41.452L8.5498 32L64.1498 0L119.45 31.868L103.466 40.828L64.0798 18.412L24.8938 41.386" fill="#03AFEF"/>
<path d="M63.5901 82.02L63.1641 81.594V64.298L63.5901 64.068V63.642L78.4241 54.978H78.8841V72.832L63.4921 81.956" fill="#2F406A"/>
<path d="M47.9342 73.4859V54.9399H48.3602L63.4602 63.7359V82.0499L47.8042 73.4839" fill="#2379BD"/>
<path d="M63.328 45.85L47.936 54.974L63.59 64L78.982 55.008L63.326 45.752" fill="#03AFEF"/>
<path d="M44.4201 93.3402L43.9941 92.9142V75.5842L44.4201 75.3542V74.9282L59.2541 66.2642H59.7141V84.1182L44.3221 93.2422" fill="#2F406A"/>
<path d="M28.7681 84.7759V66.2319H29.1941L44.2941 75.0279V93.3419L28.7701 84.7759" fill="#2379BD"/>
<path d="M44.1921 57.1399L28.7661 66.2319L44.4221 75.3559L59.8141 66.3639L44.1581 57.1079" fill="#03AFEF"/>
<path d="M84.136 93.7679L83.71 93.3419V76.0119L84.136 75.7819V75.3559L98.97 66.6919H99.43V84.5459L84.038 93.6699" fill="#2F406A"/>
<path d="M68.4801 85.2001V66.6602H68.9721L84.0721 75.4562V93.7701L68.4141 85.2001" fill="#2379BD"/>
<path d="M83.872 57.436L68.48 66.56L84.136 75.684L99.528 66.692L83.872 57.436Z" fill="#03AFEF"/>
<path d="M64.968 105.06L64.542 104.634V87.3L64.968 87.07V86.644L79.802 77.98H80.262V95.834L64.87 104.958" fill="#2F406A"/>
<path d="M49.2798 96.492V77.98H49.7058L64.8058 86.776V105.09L49.2818 96.49" fill="#2379BD"/>
<path d="M64.7058 68.86L49.2798 77.98L64.9678 86.972L80.3598 77.98L64.7038 68.856" fill="#03AFEF"/>
<path d="M63.5901 57.4358L63.1641 57.0098V39.7458L63.5901 39.5158V39.0898L78.4241 30.4258H78.8841V48.2798L63.5901 57.4358Z" fill="#2F406A"/>
<path d="M47.9342 48.9361V30.3921H48.3602L63.4602 39.1881V57.4361L47.8042 48.8701" fill="#2379BD"/>
<path d="M63.328 21.334L47.936 30.458L63.592 39.582L78.984 30.59L63.328 21.334Z" fill="#03AFEF"/>
<path d="M44.4201 68.7602L43.9941 68.3342V50.8742L44.4201 50.6442V50.2182L59.2541 41.5542H59.7141V59.4082L44.3221 68.5322" fill="#2F406A"/>
<path d="M28.7681 60.2262V41.6802H29.1941L44.2941 50.4762V68.7902L28.7701 60.2242" fill="#2379BD"/>
<path d="M44.1921 32.5898L28.7661 41.6818L44.4221 50.8718L59.8141 41.8798L44.1581 32.6238" fill="#03AFEF"/>
<path d="M84.136 69.1861L83.71 68.7601V51.4601L84.136 51.2301V50.8041L98.97 42.1401H99.43V59.9941L84.038 69.1181" fill="#2F406A"/>
<path d="M68.48 60.7199V42.1099H68.972L84.004 50.8739V69.1879L68.48 60.7199Z" fill="#2379BD"/>
<path d="M83.872 33.0201L68.48 42.1401L84.136 51.2641L99.528 42.2721L83.872 33.0161" fill="#03AFEF"/>
<path d="M64.968 80.4101L64.542 79.9841V62.7541L64.968 62.5241V62.0981L79.802 53.4341H80.262V71.2881L64.968 80.4101Z" fill="#2F406A"/>
<path d="M49.2798 71.9399V53.3999H49.7058L64.8058 62.1959V80.4119L49.2798 71.9399Z" fill="#2379BD"/>
<path d="M64.7058 44.3081L49.2798 53.4001L64.9358 62.5241L80.3278 53.5321L64.7078 44.3121" fill="#03AFEF"/>
</svg>

<svg xmlns="http://www.w3.org/2000/svg" width="128" height="128" fill="none"><path fill="#2F406A" d="M103.466 40.828v46.146L64.28 109.948l-.36.328v17.394l.36.328 55.172-31.868V31.87h-.526l-15.556 8.7v.36"/><path fill="#2379BD" d="m24.96 87.3 39.384 22.81V128L8.714 96V32h.56l15.524 9.026.164.526V87.5"/><path fill="#03AFEF" d="M24.96 41.452 8.55 32l55.6-32 55.3 31.868-15.984 8.96L64.08 18.412 24.894 41.386"/><path fill="#2F406A" d="m63.59 82.02-.426-.426V64.298l.426-.23v-.426l14.834-8.664h.46v17.854l-15.392 9.124"/><path fill="#2379BD" d="M47.934 73.486V54.94h.426l15.1 8.796V82.05l-15.656-8.566"/><path fill="#03AFEF" d="m63.328 45.85-15.392 9.124L63.59 64l15.392-8.992-15.656-9.256"/><path fill="#2F406A" d="m44.42 93.34-.426-.426v-17.33l.426-.23v-.426l14.834-8.664h.46v17.854l-15.392 9.124"/><path fill="#2379BD" d="M28.768 84.776V66.232h.426l15.1 8.796v18.314L28.77 84.776"/><path fill="#03AFEF" d="m44.192 57.14-15.426 9.092 15.656 9.124 15.392-8.992-15.656-9.256"/><path fill="#2F406A" d="m84.136 93.768-.426-.426v-17.33l.426-.23v-.426l14.834-8.664h.46v17.854L84.038 93.67"/><path fill="#2379BD" d="M68.48 85.2V66.66h.492l15.1 8.796V93.77L68.414 85.2"/><path fill="#03AFEF" d="M83.872 57.436 68.48 66.56l15.656 9.124 15.392-8.992-15.656-9.256Z"/><path fill="#2F406A" d="m64.968 105.06-.426-.426V87.3l.426-.23v-.426l14.834-8.664h.46v17.854l-15.392 9.124"/><path fill="#2379BD" d="M49.28 96.492V77.98h.426l15.1 8.796v18.314l-15.524-8.6"/><path fill="#03AFEF" d="M64.706 68.86 49.28 77.98l15.688 8.992L80.36 77.98l-15.656-9.124"/><path fill="#2F406A" d="m63.59 57.436-.426-.426V39.746l.426-.23v-.426l14.834-8.664h.46V48.28L63.59 57.436Z"/><path fill="#2379BD" d="M47.934 48.936V30.392h.426l15.1 8.796v18.248L47.804 48.87"/><path fill="#03AFEF" d="m63.328 21.334-15.392 9.124 15.656 9.124 15.392-8.992-15.656-9.256Z"/><path fill="#2F406A" d="m44.42 68.76-.426-.426v-17.46l.426-.23v-.426l14.834-8.664h.46v17.854l-15.392 9.124"/><path fill="#2379BD" d="M28.768 60.226V41.68h.426l15.1 8.796V68.79L28.77 60.224"/><path fill="#03AFEF" d="m44.192 32.59-15.426 9.092 15.656 9.19 15.392-8.992-15.656-9.256"/><path fill="#2F406A" d="m84.136 69.186-.426-.426v-17.3l.426-.23v-.426L98.97 42.14h.46v17.854l-15.392 9.124"/><path fill="#2379BD" d="M68.48 60.72V42.11h.492l15.032 8.764v18.314L68.48 60.72Z"/><path fill="#03AFEF" d="M83.872 33.02 68.48 42.14l15.656 9.124 15.392-8.992-15.656-9.256"/><path fill="#2F406A" d="m64.968 80.41-.426-.426v-17.23l.426-.23v-.426l14.834-8.664h.46v17.854L64.968 80.41Z"/><path fill="#2379BD" d="M49.28 71.94V53.4h.426l15.1 8.796v18.216L49.28 71.94Z"/><path fill="#03AFEF" d="M64.706 44.308 49.28 53.4l15.656 9.124 15.392-8.992-15.62-9.22"/></svg>
